X: 1
T:Beauty of the North (Mais' an taobh tuath)
M:4/4
L:1/8
C:Simon Fraser
R:Strathspey
K:Eb
E|"Eb"G,<EE>F G>A B<c|"Ab"C<C F>E "Bb"D<B, B,2| "Eb"G,<EE>F G>A B<g|"Bb"
f>d e/d/c/B/ "Eb"e3:|
|:g|"Eb"e>g B<g e<g b>g|"Ab"a>gf>e "Bb"d<B B<g|"Eb"e>g B<g "Cm"e/f/g/a/ÿ
b>g|"Bb"a>f "Cm"e/d/c/B/ "Eb"e2 ef|"Eb" g>e B<G "Cm"e>B G<E|"Ab"A>GF>E
"Bb"D<B, B,2!|"Eb"G,<EE>A G<eB<g|"Bb"f>d e/d/c/B/ "Eb"e3:|
